!!!Melodie: Lob Gott getrost mit Singen
!!!Typ: Lied
**kern	**silbe	**silbe	**silbe	**silbe	**silbe	**silbe	**silbe	**silbe	**silbe	**silbe	**silbe	**silbe	**silbe	**silbe
*clefG2	*lang:DE	*lang:DE	*lang:DE	*lang:DE	*lang:DE	*lang:DE	*lang:DE	*lang:DE	*lang:DE	*lang:DE	*lang:DE	*lang:DE	*lang:DE	*lang:DE
*k[b-]	*	*	*	*	*	*	*	*	*	*	*	*	*	*
*M4/4	*	*	*	*	*	*	*	*	*	*	*	*	*	*
4f	O	ver#	O	komm	Un#	da#	Es	ein	In	sie	O	uns	Du	mit
=	=	=	=	=	=	=	=	=	=	=	=	=	=	=
4.f	komm	#brei#	du,	zu	#glaub'	#rum	gilt	of#	al#	wer#	wahr#	ist	heil’#	dei#
8e	du	#te	den	uns,	und	musst	ein	#fe#	#ler	#fen	#lich,	das	#ger	#ner
4f	Geist	Licht	un#	wer#	Tor#	du	frei	#nes	Hei#	Sa#	wir	Licht	Geist,	Kraft
4g	der	und	#ser	#ter	#heit	uns	Ge#	Be#	#den	#tans	ver#	er#	be#	be#
=	=	=	=	=	=	=	=	=	=	=	=	=	=	=
2e	Wahr#	Klahr#	größ#	Trös#	brüs#	rüs#	#ständ#	#kennt#	Lan#	Ban#	#dien#	#schie#	#rei#	#glei#
4c	#heit,	#heit,	#ter	#ter,	#ten	#ten	#nis	#nis	#de	#de	#nen	#nen,	#te	#te
4g	Und	ver#	Re#	und	sich	mit	in	bei	er#	und	solch’	al#	ein	das
=	=	=	=	=	=	=	=	=	=	=	=	=	=	=
4.a	keh#	#ban#	#gent	mach’	frech#	Waf#	die#	al#	#schallt	ih#	stren#	#lein	Pfingst#	Zeug#
8g	#re	#ne	uns	uns	#er	#fen	#ser	#lem	dein	#re	#ges	wir	#fest	#nis
4f	bei	Trug	zu#	un#	jetzt	aus	uns’#	Wi#	kräf#	Göt#	Straf#	glau#	nah	von
4d	uns	und	#ge#	#ver#	als	der	#rer	#der#	#tig'	#zen	#ge#	#ben	und	dem
=	=	=	=	=	=	=	=	=	=	=	=	=	=	=
2c	ein,	Schein.	#sagt,	#zagt.	je,	Höh’.	Zeit,	#streit.	Wort,	fort.	#richt,	nicht.	fern,	Herrn.
4r	%	%	%	%	%	%	%	%	%	%	%	%	%	%
=:|	=	=	=	=	=	=	=	=	=	=	=	=	=	=
4cc	.	Gieß'	.	Gib	.	Du	.	Trotz	.	Von	.	Ach,	.	O
=	=	=	=	=	=	=	=	=	=	=	=	=	=	=
4b-	.	aus	.	uns	.	musst	.	al#	.	al#	.	las#	.	öff#
4a	.	dein	.	in	.	uns	.	#ler	.	#len	.	#set	.	#ne
4g	.	hei#	.	die#	.	Kraft	.	Fei#	.	Sei#	.	uns	.	du
4f	.	#lig'	.	#ser	.	ver#	.	#nde	.	#ten	.	ge#	.	die
=	=	=	=	=	=	=	=	=	=	=	=	=	=	=
(4b-	.	Feu#	.	schlaf#	.	#lei#	.	To#	.	kom#	.	#beug#	.	Her#
4a)	.	|	.	|	.	|	.	|	.	|	.	|	.	|
4g	.	#er,	.	#fen	.	#hen,	.	#ben,	.	#men	.	#ter	.	#zen
4cc	.	Rühr	.	und	.	Ge#	.	trotz	.	sie	.	um	.	der
=	=	=	=	=	=	=	=	=	=	=	=	=	=	=
4b-	.	Herz	.	glau#	.	#duld	.	al#	.	in	.	Got#	.	Welt
4a	.	und	.	#bens#	.	und	.	#lem	.	das	.	#tes	.	und
4g	.	Lip#	.	#ar#	.	Glau#	.	Hei#	.	Reich	.	Gna#	.	uns
4f	.	#pen	.	#men	.	#bens#	.	#den#	.	he#	.	#de	.	den
=	=	=	=	=	=	=	=	=	=	=	=	=	=	=
2g	.	an,	.	Zeit	.	#treu',	.	#tum	.	#rein;	.	fleh’n,	.	Mund,
2c	.	dass	.	die	.	du	.	zu	.	ach,	.	dass	.	dass
=	=	=	=	=	=	=	=	=	=	=	=	=	=	=
4f	.	jeg#	.	scharf	.	musst	.	prei#	.	soll	.	er	.	wir
4g	.	#lich#	.	ge#	.	uns	.	#sen	.	er	.	bei	.	in
4a	.	#er	.	#schliff'#	.	ganz	.	und	.	uns	.	uns	.	Freud’
4b-	.	Ge#	.	#nen	.	be#	.	zu	.	ge#	.	den	.	und
=	=	=	=	=	=	=	=	=	=	=	=	=	=	=
2cc	.	#treu#	.	Waf#	.	#frei#	.	lo#	.	#nom#	.	Leuch#	.	Schmer#
2g	.	#er	.	#fen	.	#en	.	#ben	.	#men,	.	#ter	.	#zen
=	=	=	=	=	=	=	=	=	=	=	=	=	=	=
2b-	.	den	.	der	.	von	.	das	.	für	.	des	.	das
4a	.	Herrn	.	er#	.	al#	.	E#	.	uns	.	Wor#	.	Heil
4g	.	be#	.	#sten	.	#ler	.	#van#	.	ver#	.	#tes	.	ihr
=	=	=	=	=	=	=	=	=	=	=	=	=	=	=
(4.cc	.	#ken#	.	Chris#	.	Men#	.	#ge#	.	#schlos#	.	las#	.	ma#
8b-	.	|	.	|	.	|	.	|	.	|	.	|	.	|
4a	.	|	.	|	.	|	.	|	.	|	.	|	.	|
8Lg	.	|	.	|	.	|	.	|	.	|	.	|	.	|
8Jf	.	|	.	|	.	|	.	|	.	|	.	|	.	|
=	=	=	=	=	=	=	=	=	=	=	=	=	=	=
4g)	.	|	.	|	.	|	.	|	.	|	.	|	.	|
4g	.	#nen	.	#ten#	.	#schen#	.	#li#	.	#sen	.	#se	.	#chen
4f	.	kann.	.	#heit.	.	#scheu.	.	#um.	.	sein?	.	steh’n.	.	kund.
==	==	==	==	==	==	==	==	==	==	==	==	==	==	==
*-	*-	*-	*-	*-	*-	*-	*-	*-	*-	*-	*-	*-	*-	*-
